docs/public/static/readme/crowdin-darkmode.svg

<svg fill="none" height="54" viewBox="0 0 180 54" width="180" xmlns="http://www.w3.org/2000/svg"><g fill="#f5f5f5"><path d="m45.5905 30.9645c-.9833 0-1.475-.1674-1.475-.9401 0-.1886.0547-.4147.1822-.6785l3.2023-6.8814h9.5c1.3784 0 1.2786 1.2906.7977 2.3571l-.2441.5h3.9881l.256-.5c1-2 .5015-3.8571-2.0664-3.8571h-15.5l-4.1039 8.8337c-.091.2638-.1274.5088-.1274.7539 0 .7727.4188 1.3946 1.2383 1.8469.6556.3581 1.4022.5466 2.2398.5466l14.5219.0189.9934-2zm31.9095-10h-12l-5 11.9811h4l4.5-10.4811h5.7727c1.7116 0 1.7273 1.5.7273 3h4.0063l.4937-1c.6424-1.8551-.4271-3.5-2.5-3.5zm21.5 0h-16c-1.5 4-2.5 6-3.5 9-.5 2 .7316 2.9811 3.1304 2.9811h14.7502l3.8404-8.3779c.613-1.8974-.092-3.6032-2.221-3.6032zm-4.5 10h-9.6541c-.9656 0-1.5416-.1863-1.5416-.9401 0-.2262.0545-.4524.1635-.6785l3.0322-6.8814h9.5c1.8946 0 1.5884 1.2763.9779 2.631zm9.764 2h20.924l5.312-12-4-.0188-4.627 10.2095h-6.737l4.437-10.1907-4.116.0188-4.437 10.1719h-4.607c-.983 0-1.475-.377-1.475-1.1308 0-.2262.054-.4524.164-.6785l3.898-8.3814h-4l-4.123 8.8902c-.091.2639-.128.5089-.128.7538 0 .7728.438 1.3948 1.294 1.8283.637.358 1.402.5277 2.221.5277zm49.824-17-4.588 1-1.5 4h-10.58c-3.604-.0565-4.92 1-5.92 3l-3 6.5c-.5 1.5.07 2.5 2 2.5h16zm-20.088 14.9645c-1.5 0-2-.9046-1.5-1.9645l2-4c1-2 1.5-2.5 3.5-2.5h9.5l-4.102 8.4645zm19.032 2.0355 5.468-13-4.412 1-5.19 12zm5.968-14.5 1-2.5-4.5 1-1 2.5zm16.5 2.5h-14.945l-5.283 12h4.115l4.613-10.5h8.5c2.5 0 1.5 2.0354 1 3.0354l-3.5 7.5h4l3.5-7.9999c1.148-2.6053.841-4.0355-2-4.0355z"/><path d="m34.1161 20.9018c-1.1279-.1384-2.2371-.2086-3.3008-.2059-3.453.0085-9.3539 1.1021-9.3539 5.6918l1.102.2141c-.0148.1989-.0148.3987 0 .5976v1.0419l-1.102-.078c.2923 4.1428 2.7205 5.2876 5.0073 5.3489 1.094 0 2.1244-.1172 3.1332-.5823.0344-.0162.0624-.0442.079-.0793s.0209-.0751.0121-.1131c-.0087-.038-.03-.0716-.0602-.0952s-.0673-.0357-.1052-.0341c-2.1085.3064-4.2662-1.4054-4.2662-5.0368 0-4.5967 3.6574-6.3631 8.8992-6.3631.1188.0153.1336-.2758-.0445-.3065zm-11.4854 8.1492h1.7538c.1434 1.233.6376 2.6668 1.5199 3.5112-.8225-.1044-1.5859-.4954-2.1638-1.1084-.5778-.613-1.0316-1.5515-1.1099-2.4028zm1.9522-3.8742c0 .1532-.1188.429-.1782.7048h-.6979c-.3733-.0174-.7453-.0583-1.1137-.1226.0053-.0355.0053-.0717 0-.1072.4603-2.4669 2.8213-3.4935 5.1081-3.9225-.7361.2982-1.3981.7626-1.9377 1.3592-.5396.5965-.943 1.31-1.1806 2.0883z"/><path d="m36.4991 17.2293c-4.6247-1.3423-24.0989-2.9699-24.0989 8.275.6556.0961 1.1109.2434 1.4616.2915-.0467.8561 0 1.7942 0 2.6632l-1.7539-.2959c0 6.5102 4.5802 8.5615 8.1935 8.5615.5966-.0028 1.1924-.0456 1.7838-.1281 1.4884-.1707 2.9321-.638 4.2537-1.3768.0289-.0213.0506-.0515.0621-.0865.0116-.0349.0124-.0728.0022-.1083-.0101-.0354-.0306-.0666-.0586-.0891-.0279-.0225-.0619-.0352-.0972-.0363-3.0492.6404-7.2267-.2241-7.2267-7.7806 0-10.0539 13.5754-9.3933 17.5242-9.5534.0337-.0153.0616-.0419.0795-.0756s.0248-.0726.0196-.1108c-.0052-.0381-.0221-.0735-.0483-.1005-.0262-.0271-.0601-.0444-.0966-.0493zm-16.1824 18.6468c-1.7538.1169-3.4822-.4853-4.8216-1.6797-1.3394-1.1945-2.1852-2.888-2.3594-4.7241 1.1587.1601 2.6376.2882 3.8725.3522.0614 1.2644.4389 2.4895 1.0947 3.5519.6557 1.0624 1.5665 1.9246 2.6406 2.4997zm-2.8358-12.1512c-.0915.3522-.2287.9766-.3507 1.5209l-1.8295-.1921-1.8448-.2401c0-5.8791 9.1751-7.8954 12.6828-7.8954-4.7568 1.1687-7.8803 3.5728-8.6578 6.7587z"/><path d="m38.8786 13.9039c-5.6349-1.9973-12.0277-2.9788-18.0017-2.8995-8.6364 0-19.58459 2.6632-19.8769 11.8367l2.33846.5919c-.29231 1.1836-.29231 3.551-.29231 3.551s-1.33323-.4087-2.04615-.5919c0 10.8504 6.13104 13.6077 12.0316 13.6077 2.3829.0074 4.7473-.4218 6.9775-1.2666.0351-.0162.0637-.044.0807-.079.0169-.0349.0213-.0748.0124-.1127-.009-.0378-.0307-.0713-.0616-.0949-.0308-.0235-.0687-.0355-.1074-.0339-1.8354 0-3.2915.6104-6.2039-1.5261-5.65781-4.1051-4.96006-14.7877 1.5169-19.4422 6.6741-4.914 21.0993-3.3879 23.5718-3.2353.0199.004.0404.004.0603.0001.0199-.004.0389-.0119.0558-.0232s.0314-.0259.0427-.0429.0192-.036.0232-.0561c.004-.02.004-.0407 0-.0607-.0039-.02-.0117-.0391-.023-.0561s-.0258-.0316-.0426-.043c-.0169-.0114-.0358-.0193-.0558-.0233zm-25.7864 25.1803c-7.00778 0-10.58926-3.9391-10.92297-11.5084 1.90297.4966 3.69769.9924 5.64439 1.2684-.11729 2.9664.89754 5.8656 2.83648 8.1034.9915.9972 2.2099 1.7358 3.5494 2.1518zm15.8814-26.3554c-8.5403 0-18.4342 1.072-20.3736 10.7042 0 0-5.26154-.8878-6.43077-1.1837 1.46154-12.1327 21.63077-11.2173 29.81537-9.5205z"/></g><path d="m35.5 41 138-5-1 2-140 10z" fill="#fc0"/><path d="m34.5 34h143.5l-1 2-146.5 5.5z" fill="#06c"/></svg>

<svg width="180" height="54" viewBox="0 0 180 54" fill="none" xmlns="http://www.w3.org/2000/svg">
<path d="M45.5905 30.9645C44.6072 30.9645 44.1155 30.7971 44.1155 30.0244C44.1155 29.8358 44.1702 29.6097 44.2977 29.3459L47.5 22.4645H57C58.3784 22.4645 58.2786 23.7551 57.7977 24.8216L57.5536 25.3216H61.5417L61.7977 24.8216C62.7977 22.8216 62.2992 20.9645 59.7313 20.9645H44.2313L40.1274 29.7982C40.0364 30.062 40 30.307 40 30.5521C40 31.3248 40.4188 31.9467 41.2383 32.399C41.8939 32.7571 42.6405 32.9456 43.4781 32.9456L58 32.9645L58.9934 30.9645H45.5905ZM77.5 20.9645H65.5L60.5 32.9456H64.5L69 22.4645H74.7727C76.4843 22.4645 76.5 23.9645 75.5 25.4645H79.5063L80 24.4645C80.6424 22.6094 79.5729 20.9645 77.5 20.9645ZM99 20.9645H83C81.5 24.9645 80.5 26.9645 79.5 29.9645C79 31.9645 80.2316 32.9456 82.6304 32.9456H97.3806L101.221 24.5677C101.834 22.6703 101.129 20.9645 99 20.9645ZM94.5 30.9645H84.8459C83.8803 30.9645 83.3043 30.7782 83.3043 30.0244C83.3043 29.7982 83.3588 29.572 83.4678 29.3459L86.5 22.4645H96C97.8946 22.4645 97.5884 23.7408 96.9779 25.0955L94.5 30.9645ZM104.264 32.9645H125.188L130.5 20.9645L126.5 20.9457L121.873 31.1552H115.136L119.573 20.9645L115.457 20.9833L111.02 31.1552H106.413C105.43 31.1552 104.938 30.7782 104.938 30.0244C104.938 29.7982 104.992 29.572 105.102 29.3459L109 20.9645H105L100.877 29.8547C100.786 30.1186 100.749 30.3636 100.749 30.6085C100.749 31.3813 101.187 32.0033 102.043 32.4368C102.68 32.7948 103.445 32.9645 104.264 32.9645ZM154.088 15.9645L149.5 16.9645L148 20.9645H137.42C133.816 20.908 132.5 21.9645 131.5 23.9645L128.5 30.4645C128 31.9645 128.57 32.9645 130.5 32.9645H146.5L154.088 15.9645ZM134 30.929C132.5 30.929 132 30.0244 132.5 28.9645L134.5 24.9645C135.5 22.9645 136 22.4645 138 22.4645H147.5L143.398 30.929H134ZM153.032 32.9645L158.5 19.9645L154.088 20.9645L148.898 32.9645H153.032ZM159 18.4645L160 15.9645L155.5 16.9645L154.5 19.4645L159 18.4645ZM175.5 20.9645H160.555L155.272 32.9645H159.387L164 22.4645H172.5C175 22.4645 174 24.4999 173.5 25.4999L170 32.9999H174L177.5 25C178.648 22.3947 178.341 20.9645 175.5 20.9645Z" fill="#F5F5F5"/>
<path d="M34.1161 20.9018C32.9882 20.7634 31.879 20.6932 30.8153 20.6959C27.3623 20.7044 21.4614 21.798 21.4614 26.3877L22.5634 26.6018C22.5486 26.8007 22.5486 27.0005 22.5634 27.1994C22.5634 27.5671 22.5634 27.9195 22.5634 28.2413L21.4614 28.1633C21.7537 32.3061 24.1819 33.4509 26.4687 33.5122C27.5627 33.5122 28.5931 33.395 29.6019 32.9299C29.6363 32.9137 29.6643 32.8857 29.6809 32.8506C29.6975 32.8155 29.7018 32.7755 29.693 32.7375C29.6843 32.6995 29.663 32.6659 29.6328 32.6423C29.6026 32.6187 29.5655 32.6066 29.5276 32.6082C27.4191 32.9146 25.2614 31.2028 25.2614 27.5714C25.2614 22.9747 28.9188 21.2083 34.1606 21.2083C34.2794 21.2236 34.2942 20.9325 34.1161 20.9018ZM22.6307 29.051C23.2153 29.051 23.7068 29.051 24.3845 29.051C24.5279 30.284 25.0221 31.7178 25.9044 32.5622C25.0819 32.4578 24.3185 32.0668 23.7406 31.4538C23.1628 30.8408 22.709 29.9023 22.6307 29.051ZM24.5829 25.1768C24.5829 25.33 24.4641 25.6058 24.4047 25.8816H23.7068C23.3335 25.8642 22.9615 25.8233 22.5931 25.759C22.5984 25.7235 22.5984 25.6873 22.5931 25.6518C23.0534 23.1849 25.4144 22.1583 27.7012 21.7293C26.9651 22.0275 26.3031 22.4919 25.7635 23.0885C25.2239 23.685 24.8205 24.3985 24.5829 25.1768Z" fill="#F5F5F5"/>
<path d="M36.4991 17.2293C31.8744 15.887 12.4002 14.2594 12.4002 25.5043C13.0558 25.6004 13.5111 25.7477 13.8618 25.7958C13.8151 26.6519 13.8618 27.59 13.8618 28.459L12.1079 28.1631C12.1079 34.6733 16.6881 36.7246 20.3014 36.7246C20.898 36.7218 21.4938 36.679 22.0852 36.5965C23.5736 36.4258 25.0173 35.9585 26.3389 35.2197C26.3678 35.1984 26.3895 35.1682 26.401 35.1332C26.4126 35.0983 26.4134 35.0604 26.4032 35.0249C26.3931 34.9895 26.3726 34.9583 26.3446 34.9358C26.3167 34.9133 26.2827 34.9006 26.2474 34.8995C23.1982 35.5399 19.0207 34.6754 19.0207 27.1189C19.0207 17.065 32.5961 17.7256 36.5449 17.5655C36.5786 17.5502 36.6065 17.5236 36.6244 17.4899C36.6423 17.4562 36.6492 17.4173 36.644 17.3791C36.6388 17.341 36.6219 17.3056 36.5957 17.2786C36.5695 17.2515 36.5356 17.2342 36.4991 17.2293ZM20.3167 35.8761C18.5629 35.993 16.8345 35.3908 15.4951 34.1964C14.1557 33.0019 13.3099 31.3084 13.1357 29.4723C14.2944 29.6324 15.7733 29.7605 17.0082 29.8245C17.0696 31.0889 17.4471 32.314 18.1029 33.3764C18.7586 34.4388 19.6694 35.301 20.7435 35.8761H20.3167ZM17.4809 23.7249C17.3894 24.0771 17.2522 24.7015 17.1302 25.2458L15.3007 25.0537L13.4559 24.8136C13.4559 18.9345 22.631 16.9182 26.1387 16.9182C21.3819 18.0869 18.2584 20.491 17.4809 23.6769V23.7249Z" fill="#F5F5F5"/>
<path d="M38.8786 13.9039C33.2437 11.9066 26.8509 10.9251 20.8769 11.0044C12.2405 11.0044 1.29231 13.6676 1 22.8411L3.33846 23.433C3.04615 24.6166 3.04615 26.984 3.04615 26.984C3.04615 26.984 1.71292 26.5753 1 26.3921C1 37.2425 7.13104 39.9998 13.0316 39.9998C15.4145 40.0072 17.7789 39.578 20.0091 38.7332C20.0442 38.717 20.0728 38.6892 20.0898 38.6542C20.1067 38.6193 20.1111 38.5794 20.1022 38.5415C20.0932 38.5037 20.0715 38.4702 20.0406 38.4466C20.0098 38.4231 19.9719 38.4111 19.9332 38.4127C18.0978 38.4127 16.6417 39.0231 13.7293 36.8866C8.07149 32.7815 8.76924 22.0989 15.2462 17.4444C21.9203 12.5304 36.3455 14.0565 38.818 14.2091C38.8379 14.2131 38.8584 14.2131 38.8783 14.2092C38.8982 14.2052 38.9172 14.1973 38.9341 14.186C38.951 14.1747 38.9655 14.1601 38.9768 14.1431C38.9881 14.1261 38.996 14.1071 39 14.087C39.004 14.067 39.004 14.0463 39 14.0263C38.9961 14.0063 38.9883 13.9872 38.977 13.9702C38.9657 13.9532 38.9512 13.9386 38.9344 13.9272C38.9175 13.9158 38.8986 13.9079 38.8786 13.9039ZM13.0922 39.0842C6.08442 39.0842 2.50294 35.1451 2.16923 27.5758C4.0722 28.0724 5.86692 28.5682 7.81362 28.8442C7.69633 31.8106 8.71116 34.7098 10.6501 36.9476C11.6416 37.9448 12.86 38.6834 14.1995 39.0994L13.0922 39.0842ZM28.9736 12.7288C20.4333 12.7288 10.5394 13.8008 8.6 23.433C8.6 23.433 3.33846 22.5452 2.16923 22.2493C3.63077 10.1166 23.8 11.032 31.9846 12.7288H28.9736Z" fill="#F5F5F5"/>
<path d="M35.5 41L173.5 36L172.5 38L32.5 48L35.5 41Z" fill="#FFCC00"/>
<path d="M34.5 34H178L177 36L30.5 41.5L34.5 34Z" fill="#0066CC"/>
</svg>
